docs/icons/whatsapp.svg

<svg width="20" height="20" viewBox="0 0 20 20" fill="none" xmlns="http://www.w3.org/2000/svg">
<g clip-path="url(#clip0_202_421)">
<path d="M4.83719 18.5728C6.38245 19.5027 8.14926 19.9928 9.9646 19.9928C15.4655 19.9928 20 15.504 20 9.99634C20 4.49509 15.472 0 9.9646 0C4.47403 0 0.00717164 4.48441 0.00717164 9.99634C0.00717164 11.8359 0.497437 13.6162 1.42715 15.1627L0 20L4.83719 18.5728ZM1.17874 9.99634C1.17874 5.13031 5.12009 1.17142 9.9646 1.17142C14.8521 1.17142 18.8286 5.13031 18.8286 9.99634C18.8286 14.8625 14.8521 18.8213 9.9646 18.8213C8.28278 18.8213 6.64841 18.3449 5.23865 17.4434L5.01343 17.2995L1.73264 18.2675L2.7005 14.9866L2.55661 14.7615C1.65512 13.3514 1.17874 11.7038 1.17874 9.99634Z" fill="white"/>
<path d="M4.8692 8.15386C5.06268 9.16994 5.63702 11.1243 7.30923 12.7965C8.98144 14.4687 10.9358 15.0432 11.952 15.2367C13.1157 15.4582 14.8233 15.4917 15.6578 14.6572L16.123 14.1919C16.3578 13.9571 16.4872 13.6447 16.4872 13.3126C16.4872 12.9804 16.3578 12.6682 16.123 12.4333L14.2625 10.5728C14.0275 10.3379 13.7153 10.2086 13.3831 10.2086C13.051 10.2086 12.7388 10.3379 12.5038 10.5728L12.0387 11.0379C11.7546 11.322 11.2182 11.3233 10.932 11.0414L9.0762 9.10784C9.07345 9.10494 9.0707 9.10204 9.0678 9.0993C8.78323 8.81472 8.78323 8.35162 9.0678 8.06704L9.53289 7.60195C10.019 7.11581 10.019 6.32922 9.53289 5.84322L7.67239 3.98272C7.18762 3.49795 6.39874 3.49795 5.91381 3.98272L5.44872 4.44796V4.44781C4.78268 5.11401 4.56066 6.53399 4.8692 8.15386ZM6.27712 5.27636C6.76541 4.79922 6.73931 4.79006 6.79318 4.79006C6.81164 4.79006 6.8301 4.79708 6.84414 4.81112C8.80459 6.7821 8.72585 6.66628 8.72585 6.72274C8.72585 6.74242 8.71868 6.75967 8.7048 6.7737L8.23956 7.23879C7.49874 7.97961 7.49584 9.17879 8.23483 9.92297L10.0917 11.8578C10.0946 11.8605 10.0973 11.8634 10.1002 11.8663C10.8409 12.607 12.124 12.6094 12.8671 11.8663L13.3322 11.4012C13.3603 11.3732 13.406 11.3732 13.4341 11.4012C15.3946 13.3721 15.3158 13.2562 15.3158 13.3127C15.3158 13.3325 15.3087 13.3496 15.2948 13.3637L14.8295 13.8288C14.5108 14.1475 13.4954 14.3382 12.1711 14.086C11.2873 13.9176 9.58798 13.4186 8.13763 11.9683C6.68728 10.5179 6.18832 8.81853 6.02001 7.93475C5.76763 6.61044 5.95837 5.59496 6.27712 5.27636Z" fill="white"/>
</g>
<defs>
<clipPath id="clip0_202_421">
<rect width="20" height="20" fill="white"/>
</clipPath>
</defs>
</svg>

<svg width="20" height="20" fill="none" xmlns="http://www.w3.org/2000/svg"><g clip-path="url(#clip0_202_421)" fill="#fff"><path d="M4.837 18.573a9.926 9.926 0 005.128 1.42c5.5 0 10.035-4.489 10.035-9.997C20 4.496 15.472 0 9.965 0 4.474 0 .007 4.484.007 9.996c0 1.84.49 3.62 1.42 5.167L0 20l4.837-1.427zM1.18 9.996c0-4.866 3.941-8.825 8.786-8.825 4.887 0 8.864 3.96 8.864 8.825 0 4.867-3.977 8.825-8.864 8.825a8.755 8.755 0 01-4.726-1.378l-.226-.144-3.28.968.967-3.28-.143-.226a8.824 8.824 0 01-1.378-4.765z"/><path d="M4.87 8.154c.193 1.016.767 2.97 2.44 4.643 1.671 1.672 3.626 2.246 4.642 2.44 1.164.221 2.871.255 3.706-.58l.465-.465c.235-.235.364-.547.364-.88 0-.332-.13-.644-.364-.879l-1.86-1.86a1.236 1.236 0 00-.88-.364c-.332 0-.644.129-.88.364l-.464.465c-.284.284-.82.285-1.107.003L9.076 9.108l-.008-.009a.73.73 0 010-1.032l.465-.465a1.243 1.243 0 000-1.759l-1.86-1.86a1.245 1.245 0 00-1.76 0l-.464.465c-.666.666-.888 2.086-.58 3.706zm1.407-2.878c.488-.477.462-.486.516-.486.019 0 .037.007.051.021 1.96 1.971 1.882 1.855 1.882 1.912a.07.07 0 01-.021.05l-.465.466a1.9 1.9 0 00-.005 2.684l1.857 1.935.008.008c.74.741 2.024.743 2.767 0l.465-.465a.072.072 0 01.102 0c1.96 1.971 1.882 1.855 1.882 1.912a.07.07 0 01-.021.05l-.466.466c-.318.319-1.334.51-2.658.257-.884-.168-2.583-.667-4.033-2.118-1.45-1.45-1.95-3.15-2.118-4.033-.252-1.325-.062-2.34.257-2.659z"/></g><defs><clipPath id="clip0_202_421"><path fill="#fff" d="M0 0h20v20H0z"/></clipPath></defs></svg>
